svgs/thin/square-2.svg

<svg xmlns="http://www.w3.org/2000/svg" viewBox="0 0 448 512"><!--! Font Awesome Pro 6.3.0 by @fontawesome - https://fontawesome.com License - https://fontawesome.com/license (Commercial License) Copyright 2023 Fonticons, Inc. --><path d="M312 368H157.5l113.1-97.94c33.89-29.28 37.83-78.88 8.969-112.9C265.3 140.3 245.2 130 223 128.3C200.7 126.7 179.1 133.5 162.3 148L143.5 164.2C140.2 167.1 139.8 172.1 142.7 175.5c2.906 3.375 7.938 3.781 11.28 .8438l18.8-16.19c13.59-11.69 31-17.41 49-15.91c17.92 1.406 34.13 9.656 45.61 23.25c23.12 27.28 19.95 67.03-7.219 90.47l-129.4 112c-2.531 2.188-3.422 5.719-2.266 8.844C129.7 381.9 132.7 384 136 384h176c4.422 0 8-3.594 8-8S316.4 368 312 368zM384 32H64C28.65 32 0 60.65 0 96v320c0 35.35 28.65 64 64 64h320c35.35 0 64-28.65 64-64V96C448 60.65 419.3 32 384 32zM432 416c0 26.47-21.53 48-48 48H64c-26.47 0-48-21.53-48-48V96c0-26.47 21.53-48 48-48h320c26.47 0 48 21.53 48 48V416z"/></svg>

<svg xmlns="http://www.w3.org/2000/svg" viewBox="0 0 448 512"><!-- Font Awesome Pro 6.0.0-alpha2 by @fontawesome - https://fontawesome.com License - https://fontawesome.com/license (Commercial License) --><path d="M312 368H157.469L270.594 270.062C304.484 240.781 308.422 191.187 279.562 157.125C265.281 140.25 245.203 130 223 128.25C200.688 126.719 179.141 133.5 162.297 148L143.5 164.188C140.156 167.062 139.781 172.125 142.656 175.469C145.562 178.844 150.594 179.25 153.938 176.312L172.734 160.125C186.328 148.437 203.734 142.719 221.734 144.219C239.656 145.625 255.859 153.875 267.344 167.469C290.469 194.75 287.297 234.5 260.125 257.937L130.766 369.937C128.234 372.125 127.344 375.656 128.5 378.781C129.672 381.938 132.656 384 136 384H312C316.422 384 320 380.406 320 376S316.422 368 312 368ZM384 32H64C28.654 32 0 60.654 0 96V416C0 451.346 28.654 480 64 480H384C419.346 480 448 451.346 448 416V96C448 60.654 419.346 32 384 32ZM432 416C432 442.467 410.467 464 384 464H64C37.533 464 16 442.467 16 416V96C16 69.533 37.533 48 64 48H384C410.467 48 432 69.533 432 96V416Z"/></svg>
